X:1
T:Mas ay de mí
T:Francisco Valls (1665-1747)
T:From "Mapa Armónico Práctico" (1742) folio 204  recto to 205 recto.
T:Mas ay de mí
C:Francisco Valls (1665-1747)
Z:From "Mapa Armónico Práctico" (1742)
Z:folio 204  recto to 205 recto.
%%score [ 1 2 ] 3 4
L:1/8
M:4/4
K:G
V:1 treble nm="Violin I" snm="Vln. I"
V:2 treble nm="Violin II" snm="Vln. II"
V:3 treble-8 transpose=-12 nm="Tenor" snm="T."
V:4 bass nm="Continuo" snm="Cont."
V:1
"^Largo" e/>b/e/>b/ e/>b/e/>b/ f/>c'/f/>c'/ f/>c'/f/>c'/ | g2 z2 D2 z2 | %2
 g/>d'/g/>d'/ g/>d'/g/>d'/ c'/>d/c'/>d/ c'/>d/c'/>d/ | b2 z2 f2 z2 | %4
 g/>d'/g/>d'/ g/>d'/g/>d'/ f/>c'/f/>c'/ f/>c'/f/>c'/ | ^g2 z2 A/>e/A/>e/ A/>e/A/>e/ | %6
 f/>F/e/>e/ e/>e/e/>^d/ e2 z2 | e/>b/e/>b/ e/>b/e/>b/ f/>c'/f/>c'/ f/>c'/f/>c'/ | g2 z2 z4 | z8 | %10
 z8 | z8 | B/>f/B/>f/ B/>f/B/>f/ ^c/>g/c/>g/ c/>g/c/>g/ | d2 z2 ^c/>g/c/>g/ B/>g/B/>g/ | %14
 ^AB/!courtesy!^c/ B>A B2 z2 | z8 | z8 | z8 | z8 | z8 | %20
 e/>b/e/>b/ e/>b/e/>b/ f/>a/f/>a/ f/>a/f/>a/ | g2 z2 D2 z2 | %22
 g/>d'/g/>d'/ g/>d'/g/>d'/ f/>c'/f/>c'/ f/>c'/f/>c'/ | ^g2 z2 A/>e/A/>e/ A/>e/A/>e/ | %24
S f/>F/e/>e/ e/>e/e/>"^[       ]"^d/ !fermata!e2 z2 | %25
 e/>b/e/>b/ e/>b/e/>b/ f/>c'/f/>c'/ f/>c'/f/>c'/ |[M:2/2]"^Viva[ce]" e2 z2 z4 ||[K:E] z8 | z8 | %29
 z8 | z8 | z8 | B>Bd>d f>fb>b | c'2 F>F ^A>Ac>c | d>Bd>d f>fb>b | g2 b2 b3 ^a |"^Largo" b4 z4 | %37
 B>fB>f B>fB>f | c>=gc>g c>gc>g | =d4 z4 |"^Viva[ce]" f2 F2 z4 | ^e2 c2 z4 | %42
 !wedge!A2 !wedge!F2 !wedge!A2 !wedge!F2 | A4 z4 | (3BcB (3GAG (3BcB (3GAG | (3bc'bg>a (3bc'bg>a | %46
 (3bc'bG>A B2 G2 | z8 | z8 | !wedge!F2 !wedge!F2 !wedge!F2 !wedge!F2 | (3FFF (3FFF F4 | %51
 z2 B2 B2 ^A2 B8!D.C.! |] %52
V:2
 G2 z2 B2 z2 | B2 z2 A2 z2 | D2 z2 D2 z2 | d2 z2 d2 z2 | d2 z2 B2 z2 | B2 z2 c2 z2 | %6
 F2 z/ F/G/A/ G2 z2 | G2 z2 B2 z2 | B2 z2 z4 | z8 | z8 | z8 | D2 z2 F2 z2 | %13
 B/>f/B/>f/ B/>f/B/>f/ g2 z e- | ed ^c>c B2 z2 | z8 | z8 | z8 | z8 | z8 | G2 z2 F2 z2 | %21
 B2 z2 A2 z2 | D2 z2 B2 z2 | B2 z2 c2 z2 | FG F>F !fermata!E2 z2 | G2 z2 B2 z2 |[M:2/2] B2 z2 z4 || %27
[K:E] z8 | z8 | z8 | z8 | z8 | d2 B>B d>df>f | F>F^A>A c>cf>f | f2 B>B d>df>f | e>ge>d c3 B | %36
 B4 z4 | =d4 z4 | F4 z4 | B4 z4 | ^d2 B2 z4 | c2 C2 z4 | %42
 !wedge!F2 !wedge!=D>E !wedge!F2 !wedge!D>E | F4 z4 | (3GAG (3EFE (3GAG (3EFE | (3gage>f (3gage>f | %46
 (3gagE>F G2 E2 | z8 | z8 | !wedge!C2 !wedge!C2 !wedge!C2 !wedge!C2 | (3CCC (3CCC C4 | %51
 z2 E2 G2 F>E D8 |] %52
V:3
 z8 | z8 | z8 |"^642" z8 | z8 | z8 | z4 z2 z/ B/e/^d/ | e2 z2 z4 | z2 z/ B/e/^d/ e/^e/E/>F/ G>A | %9
w: ||||||¡Mas ay de|mí!|¡Mas ay de mí! Que\_en me- dio del fu-|
 B2 z B/c/ dd/>c/ B/>A/B/>^c/ | d2 z/ ^d/f/>g/ f/>e/=d>^cd/e/ | f/F/G/^A/ B/^c/d/e/ f/A/B/c/ B>A | %12
w: ror, tu se- cre- to\_ign- o- ra- do vil ti-|mor! Pa- dez- co\_y no lo pue- do com- pre-|hen- der, y no lo _ pue- * do _ com- * pre- hen-|
 B2 z2 z4 | z8 | z4 z2 z/ f/^d/^c/4B/4 | B z/ F/ A/>A/A/>A/ A/^G/ z/ G/ B/>B/B/>B/ | %16
w: der.||¡Mas ay de _|mí! Que\_en me- dio del fu- ror, _ que\_en me- dio del fu-|
 B/^A/ z z ^c/c/ ff/>e/ d/>c/B/>A/ | G/F/E z B/B/ ee/>d/ c/>B/A/>G/ | %18
w: ror, _ tu se- cre- to ign- o- ra- do vil|ti- * mor, tu se- cre- to ign- o- ra- do vil|
 F/E/D/ z/ z z/ F/ D/>E/F/>G/ A/>B/c/>d/ | ee ^de/f/ B/d/e/f/ e>d | e4 z4 | z8 | z8 | z8 | %24
w: ti- * mor! Pa- dez- co\_y no lo pue- do com- pre-|hen- der, y no lo pue- * do- * com- prehen-|der.||||
 z4 z !fermata!e G/A/B/G/ | E2 z2 z c/B/ c/B/c/B/ |[M:2/2] GE z B e>ee>e ||[K:E] f2 z B g>eed/e/ | %28
w: Des- ma- * yo\al _|ver, des- * ma- * yo\al _|ver. _ ¿Mas don- de\_es- tá\_el va-|lor, mas don- de\_es- tá\_el va- *|
 f2 B>B f2 B>B | f2 z B G>EG>^A | B2 z B e2 e>e | d3 e/f/ Bc/d<F^A/ | B4 z4 | z8 | z8 | z8 | %36
w: lor, la cruel- dad el ri-|gor? ¡E- gip- ci- os mar-|char, mo- rir o ven-|cer, mo- * rir _ _ o ven-|cer!||||
 z2 f2 =defd | B4 z4 | z8 | z2 f2 =d2 cB | B2 z B G>GG>G | c2 z c A>Bc>A | =d2 A>A d2 A>A | %43
w: Des- ma- * yo\al _|ver,||des- ma- yo\al _|ver. ¿Mas don- de\_es- tá\_el va-|lor, mas don- de\_es- tá\_el va-|lor, la cruel- dad, el ri-|
 =d2 z d B>BB>B | e2 B>B e2 B>B | e4 z4 | z4 z2 z e | c>Ac>d e2 z e | d>Bd>e f2 z c | %49
w: gor? ¿Mas don- de\_es- tá\_el va-|lor, la cruel- dad, el ri-|gor?|¡E-|gip- ci- os mar- char, E-|gip- ci os mar- char, mo-|
 f2 z c f>cd>e | f2 z c F2 z f | (3dcBd>f (3Bcdc>F B8 |] %52
w: rir, mor- rir o ven- *|cer, mo- rir, mo-|rir _ _ o ven- cer, _ _ o ven- cer!|
V:4
 E,2 z2"^6" ^D,2 z2 | E,/>B,/E,/>B,/ E,/>B,/E,/>B,/"^6" F,/>C/F,/>C/ F,/>C/F,/>C/ | %2
"^6" B,2 z2"^6" F,2 z2 | B,/>D/B,/>D/ B,/>D/B,/>D/ C/>D,/C/>D,/ C/>D,/C/>D,/ | B,2 z2"^6" ^D,2 z2 | %5
 E,/>B,/E,/>B,/ E,/>B,/E,/>B,/ C/>A,,/A,,/>A,,/ A,,/>A,,/A,,/>A,,/ | %6
 A,,/>A,,/A,,/>A,,/ B,,/>B,,/B,,/>B,,/ E,,/>B,,/E,,/>B,,/ E,,/>B,,/E,,/>B,,/ | %7
 E,,2 z2"^6" ^D,,2 z2 | E,,/>B,,/E,,/>B,,/ E,,/>B,,/E,,/>B,,/ E,,2 z2 | %9
 G,/>D/G,/>D/ G,/>D/G,/>D/ !wedge!F,2 !wedge!G,2 | D,/>F,/D,/>F,/ D,/>F,/D,/>F,/"^6" ^A,,2 B,,2 | %11
 F,2 G,F,/E,/"^642" E,"^6"D,/E,/ F,F,, | B,,2 z2"^6" ^A,,2 z2 | B,,2 z2"^6" E,2 z G,/E,/ | %14
 F,B,,F,F,, B,,/>F,/B,,/>F,/ B,,/>F,/B,,/>F,/ | B,,2"^6" ^D,2"^43" E,2"^6" ^E,2 | %16
 F,/>^C/F,/>C/ F,/>C/F,/>C/ F,^A,B,^D, | E,/>B,/E,/>B,/ E,/>B,/E,/>B,/ E,^G,A,^C, | %18
 D,/>A,/D,/>A,/ D,/>A,/D,/>A,/ D,D,,/>E,,/ F,,/>G,,/A,,/>B,,/ | %19
 C,/>B,,/C,/>D,/ E,/>F,/G,/>A,/ B,"^6"G,/A,/ B,B,, | E,2 z2 ^D,2 z2 | %21
 E,/>B,/E,/>B,/ E,/>B,/E,/>B,/"^6" F,/>C/F,/>C/ F,/>C/F,/>C/ |"^6" B,2 z2"^6" ^D,2 z2 | %23
 E,/>B,/E,/>B,/ E,/>B,/E,/>B,/"^6" C/>A,,/A,,/>A,,/ A,,/>A,,/A,,/>A,,/ | %24
 ^A,,/>A,,/A,,/>A,,/ B,,/>B,,/B,,/>B,,/ !fermata!E,,2 z2 | E,2 z2"^7" ^D,2 z2 | %26
[M:2/2] E,2 z2 E,2 z E, ||[K:E]"^6" D,>B,,D,>B,, E,2 z E, | %28
"^6" !wedge!D,2 !wedge!D,2 !wedge!D,2 !wedge!D,2 | D,>B,,D,>B,, E,2 z E, | %30
"^6" D,>B,,D,>B,, C,>B,,^A,,>F,, | B,,3 C,/D,/ E,2 F,2 | %32
 !wedge!B,,2 !wedge!B,,2 !wedge!B,,2 !wedge!B,,2 |"^6" ^A,,2 A,,2 A,,2 A,,2 | B,,4 z2 D,2 | %35
 E,E,E,E, F,F,F,F, | B,,4 z4 | B,,4 z4 |"^6" ^A,,4 z4 | B,,4 z4 | B,,>C,^D,>B,, E,2 z E, | %41
 C,>D,^E,>C, F,2 z2 | !wedge!=D,,2 !wedge!D,,2 !wedge!D,,2 !wedge!D,,2 | %43
 !courtesy!=D,>E,F,>D, =G,2 z2 | !wedge!E,,2 !wedge!E,,2 !wedge!E,,2 !wedge!E,,2 | %45
 !wedge!E,,2 !wedge!E,,2 !wedge!E,,2 !wedge!E,,2 | E,,2 E,,>E, E,,>F,,"^6"G,,>E,, | A,,2 z2 z4 | %48
 B,,2 B,,2"^6" ^A,,2 A,,2 | (3!courtesy!^A,,A,,A,, (3A,,A,,A,, (3A,,A,,A,, (3A,,A,,A,, | %50
 !wedge!!courtesy!^A,,2 !wedge!A,,2 !wedge!A,,2 !wedge!A,,2 | B,,3 D, E,2 F,2 B,,8 |] %52

